X:WFS 13-12 15
T:Rosin the Bow
M:6/8
P:A1 A2 B A2
K:G
[P:A] D| GFG BGB | d3 efg |1,3 dBG GAB | E3-E2D :|2,4 dBG ABA | G3-G :|
[P:B] Bc| d2d def | g2g gfe | dBG GAB | E3 [F3D3] [P:(A2)] |]

%%text Rakes of Mallow (WFS 13-12 16 = WFS 13-10 16)

%%text Princess Royal (WFS 13-12 17 = EATMD 13-02 05)

